Catalina-light/apps/scalable/hipchat.svg

<?xml version="1.0" encoding="UTF-8" standalone="no"?>
<svg
   xmlns:dc="http://purl.org/dc/elements/1.1/"
   xmlns:cc="http://creativecommons.org/ns#"
   xmlns:rdf="http://www.w3.org/1999/02/22-rdf-syntax-ns#"
   xmlns:svg="http://www.w3.org/2000/svg"
   xmlns="http://www.w3.org/2000/svg"
   xmlns:xlink="http://www.w3.org/1999/xlink"
   xmlns:sodipodi="http://sodipodi.sourceforge.net/DTD/sodipodi-0.dtd"
   xmlns:inkscape="http://www.inkscape.org/namespaces/inkscape"
   height="128"
   width="128"
   version="1.1"
   id="svg29"
   sodipodi:docname="hipchat.svg"
   inkscape:version="0.92.3 (2405546, 2018-03-11)">
  <metadata
     id="metadata35">
    <rdf:RDF>
      <cc:Work
         rdf:about="">
        <dc:format>image/svg+xml</dc:format>
        <dc:type
           rdf:resource="http://purl.org/dc/dcmitype/StillImage" />
        <dc:title></dc:title>
      </cc:Work>
    </rdf:RDF>
  </metadata>
  <defs
     id="defs33">
    <linearGradient
       inkscape:collect="always"
       id="linearGradient924">
      <stop
         style="stop-color:#268c92;stop-opacity:1"
         offset="0"
         id="stop920" />
      <stop
         style="stop-color:#ade7ec;stop-opacity:1"
         offset="1"
         id="stop922" />
    </linearGradient>
    <linearGradient
       inkscape:collect="always"
       xlink:href="#linearGradient924"
       id="linearGradient926"
       x1="68.248039"
       y1="107.3537"
       x2="69.092575"
       y2="16.235054"
       gradientUnits="userSpaceOnUse" />
  </defs>
  <sodipodi:namedview
     pagecolor="#ffffff"
     bordercolor="#666666"
     borderopacity="1"
     objecttolerance="10"
     gridtolerance="10"
     guidetolerance="10"
     inkscape:pageopacity="0"
     inkscape:pageshadow="2"
     inkscape:window-width="1920"
     inkscape:window-height="1026"
     id="namedview31"
     showgrid="false"
     inkscape:zoom="2.6074563"
     inkscape:cx="84.071436"
     inkscape:cy="40.263086"
     inkscape:window-x="0"
     inkscape:window-y="28"
     inkscape:window-maximized="1"
     inkscape:current-layer="svg29"
     showguides="false" />
  <linearGradient
     id="a"
     gradientUnits="userSpaceOnUse"
     x1="362.81501786269"
     x2="362.81501786269"
     y1="245.10665013731"
     y2="525.38367865098">
    <stop
       offset="0"
       stop-color="#f4f4f4"
       id="stop2" />
    <stop
       offset="1"
       stop-color="#dce3ec"
       id="stop4" />
  </linearGradient>
  <linearGradient
     id="b"
     gradientUnits="userSpaceOnUse"
     x1="64.43821741"
     x2="63.83862638457"
     y1="8.41838090179"
     y2="106.97153687812">
    <stop
       offset="0"
       stop-color="#55c3f8"
       id="stop7"
       style="stop-color:#d1d1d1;stop-opacity:1" />
    <stop
       offset="1"
       stop-color="#1484f4"
       id="stop9"
       style="stop-color:#848484;stop-opacity:1" />
  </linearGradient>
  <filter
     id="c"
     color-interpolation-filters="sRGB"
     height="1.074297"
     width="1.069841"
     x="-.034921"
     y="-.037148">
    <feGaussianBlur
       stdDeviation="1.6936817"
       id="feGaussianBlur12" />
  </filter>
  <path
     d="m64.4375 11.648438v.001953c.030822 1.006439-1.975251.061087-2.984375.091797-32.290107.981702-58.0157384 16.535135-57.1855469 43.841796.4330383 14.243502 6.7803589 28.986711 17.9804689 38.513672 1.111083.9451 2.271007 1.838947 3.476562 2.675782l8.560547 5.937502c-.569819 4.07895-7.160086 11.30315-9.054687 13.56836 7.572549-.32031 21.268434-7.05381 23.341797-10.58789 2.997055.47618 7.320163 1.14619 11.216796 1.46484 6.325689 6.18923 15.787082 10.12109 26.371094 10.12109 2.695378 0 5.306699-.27234 7.824219-.74023 2.794014-.59121 9.979035 4.42164 13.617185 4.5332.40963-1.58526-5.73902-6.78945-3.37695-7.97265 9.86761-5.01415 16.42578-14.014938 16.42578-24.292972 0-5.056804-1.59999-9.802058-4.39258-13.919922 2.99286-6.456197 4.55847-13.469272 4.33985-20.660157-.80411-26.44901-25.227684-42.177009-56.16016-42.576171z"
     id="path15"
     filter="url(#c)"
     fill-opacity=".228137"
     fill="#304050" />
  <path
     style="opacity:1;fill:url(#linearGradient926);fill-opacity:1;stroke:none;stroke-width:2;stroke-linecap:round;stroke-linejoin:round;stroke-miterlimit:4;stroke-dasharray:none;stroke-dashoffset:0;stroke-opacity:1;paint-order:fill markers stroke"
     d="M 64.4375 11.648438 L 64.4375 11.650391 C 64.468322 12.65683 62.462249 11.711478 61.453125 11.742188 C 29.163018 12.723889 3.4373866 28.277323 4.2675781 55.583984 C 4.7006164 69.827486 11.047937 84.570695 22.248047 94.097656 C 23.35913 95.042756 24.519054 95.936603 25.724609 96.773438 L 34.285156 102.71094 C 33.715337 106.78989 27.12507 114.01409 25.230469 116.2793 C 32.803018 115.95899 46.498903 109.22549 48.572266 105.69141 C 52.862944 106.37313 59.889639 107.47089 64.457031 107.33203 C 96.747147 106.35033 121.42781 81.529905 120.59766 54.224609 C 119.79355 27.775599 95.369976 12.0476 64.4375 11.648438 z "
     id="path900" />
  <path
     d="m84.398649 60.292903c-18.230327.771722-32.729074 13.259398-32.729074 28.510568 0 15.744919 15.434957 28.472939 34.490489 28.472939 2.695378 0 5.306361-.27091 7.823881-.7388 2.794014-.59121 9.978905 4.42058 13.617055 4.53214.40963-1.58526-5.73851-6.78932-3.37644-7.97252 9.86761-5.01415 16.42598-14.01468 16.42598-24.292715 0-15.745711-15.43496-28.510832-34.490476-28.510832-.595519 0-1.173293-.08101-1.761415 0z"
     fill="url(#a)"
     id="path19" />
  <path
     style="fill:#51676d;stroke:none;stroke-width:1px;stroke-linecap:butt;stroke-linejoin:miter;stroke-opacity:1;fill-opacity:1"
     d="M 74.576172 77.017578 A 7.0508475 7.0508475 0 0 0 67.525391 84.068359 A 7.0508475 7.0508475 0 0 0 74.576172 91.119141 A 7.0508475 7.0508475 0 0 0 81.626953 84.068359 A 7.0508475 7.0508475 0 0 0 74.576172 77.017578 z M 102.23633 77.017578 A 7.0508475 7.0508475 0 0 0 95.185547 84.068359 A 7.0508475 7.0508475 0 0 0 102.23633 91.119141 A 7.0508475 7.0508475 0 0 0 109.28906 84.068359 A 7.0508475 7.0508475 0 0 0 102.23633 77.017578 z M 74.169922 98.710938 C 84.372445 110.82535 96.00441 110.4609 102.64453 98.710938 C 93.98427 103.8657 82.732806 103.89073 74.169922 98.710938 z "
     id="path928" />
</svg>

<svg width="128" height="128" version="1.1" xmlns="http://www.w3.org/2000/svg">
<defs>
<linearGradient id="linearGradient926" x1="68.248" x2="69.093" y1="107.35" y2="16.235" gradientUnits="userSpaceOnUse"/>
</defs>
<linearGradient id="a" x1="362.82" x2="362.82" y1="245.11" y2="525.38" gradientUnits="userSpaceOnUse">
<stop stop-color="#f4f4f4" offset="0"/>
<stop stop-color="#dce3ec" offset="1"/>
</linearGradient>
<filter id="c" x="-.034921" y="-.037148" width="1.0698" height="1.0743" color-interpolation-filters="sRGB">
<feGaussianBlur stdDeviation="1.6936817"/>
</filter>
<path d="m64.438 11.648v0.001953c0.030822 1.0064-1.9753 0.061087-2.9844 0.091797-32.29 0.9817-58.016 16.535-57.186 43.842 0.43304 14.244 6.7804 28.987 17.98 38.514 1.1111 0.9451 2.271 1.8389 3.4766 2.6758l8.5605 5.9375c-0.56982 4.079-7.1601 11.303-9.0547 13.568 7.5725-0.32031 21.268-7.0538 23.342-10.588 2.9971 0.47618 7.3202 1.1462 11.217 1.4648 6.3257 6.1892 15.787 10.121 26.371 10.121 2.6954 0 5.3067-0.27234 7.8242-0.74023 2.794-0.59121 9.979 4.4216 13.617 4.5332 0.40963-1.5853-5.739-6.7894-3.377-7.9726 9.8676-5.0142 16.426-14.015 16.426-24.293 0-5.0568-1.6-9.8021-4.3926-13.92 2.9929-6.4562 4.5585-13.469 4.3398-20.66-0.80411-26.449-25.228-42.177-56.16-42.576z" fill="#304050" fill-opacity=".22814" filter="url(#c)"/>
<path d="m64.438 11.648v0.001953c0.030822 1.0064-1.9753 0.061087-2.9844 0.091797-32.29 0.9817-58.016 16.535-57.186 43.842 0.43304 14.244 6.7804 28.987 17.98 38.514 1.1111 0.9451 2.271 1.8389 3.4766 2.6758l8.5605 5.9375c-0.56982 4.079-7.1601 11.303-9.0547 13.568 7.5725-0.32031 21.268-7.0538 23.342-10.588 4.2907 0.68172 11.317 1.7795 15.885 1.6406 32.29-0.9817 56.971-25.802 56.141-53.107-0.80411-26.449-25.228-42.177-56.16-42.576z" fill="url(#linearGradient926)" style="paint-order:fill markers stroke"/>
<path d="m84.399 60.293c-18.23 0.77172-32.729 13.259-32.729 28.511 0 15.745 15.435 28.473 34.49 28.473 2.6954 0 5.3064-0.27091 7.8239-0.7388 2.794-0.59121 9.9789 4.4206 13.617 4.5321 0.40963-1.5853-5.7385-6.7893-3.3764-7.9725 9.8676-5.0142 16.426-14.015 16.426-24.293 0-15.746-15.435-28.511-34.49-28.511-0.59552 0-1.1733-0.08101-1.7614 0z" fill="url(#a)"/>
<path d="m74.576 77.018a7.0508 7.0508 0 0 0-7.0508 7.0508 7.0508 7.0508 0 0 0 7.0508 7.0508 7.0508 7.0508 0 0 0 7.0508-7.0508 7.0508 7.0508 0 0 0-7.0508-7.0508zm27.66 0a7.0508 7.0508 0 0 0-7.0508 7.0508 7.0508 7.0508 0 0 0 7.0508 7.0508 7.0508 7.0508 0 0 0 7.0527-7.0508 7.0508 7.0508 0 0 0-7.0527-7.0508zm-28.066 21.693c10.203 12.114 21.834 11.75 28.475 0-8.6603 5.1548-19.912 5.1798-28.475 0z" fill="#51676d"/>
</svg>
